X: 229
T: No_84_Bird_Dance_Song_(g).krn
N: Derived from No_84_Bird_Dance_Song_(g).krn
%%abc-version 2.0
%%abcx-abcm2ps-target-version 5.9.1 (29 Sep 2008)
%%abc-creator hum2abc beta
%%abcx-conversion-date 2019/03/15 08:38:45
%%humdrum-veritas 3124420165
%%humdrum-veritas-data 691579316
%%linebreak <none>
%%barnumbers 0
L: 1/8
M: 2/4
K: Eb clef=bass
[K:clef=bass][M:2/4]B,/B,3/ B,/B,3/ ]|:  
B,2G,2 | 
B,/B,3/ G,/G,3/ | 
E,2E, z | 
B,/B,3/ G,/G,3/ | 
(B,G,)G,2 ||  
[M:3/4]G,E, E,C,B,,2 ||  
[M:2/4]E,E, (E,B,,) | 
E,4 | 
G,/E,3/ E,/E,3/ | 
G,2G,2 ||  
[M:3/4]G,E, E,C, B,, z ||  
[M:2/4]E,E, (E,B,,) | 
E,4 | 
z3/ E,/ (3B,B,B, :|]  



